svg/fluentui-system-icons/ic_fluent_tag_lock_32_filled.svg

<svg width="32" height="32" viewBox="0 0 32 32" fill="none" xmlns="http://www.w3.org/2000/svg">
<path d="M15.9516 4.07892C16.6927 3.38568 17.6695 3 18.6842 3H25.4998C27.4328 3 28.9998 4.567 28.9998 6.5V13.2574C28.9998 14.3182 28.5783 15.3356 27.8282 16.0858L27.361 16.5529C26.5043 15.0293 24.8722 14 22.9998 14C20.5434 14 18.5007 15.7714 18.0794 18.1064C16.3139 18.5221 14.9998 20.1076 14.9998 22V28C14.9998 28.2138 15.0165 28.4237 15.0488 28.6285C13.4341 29.5178 11.3635 29.278 9.99455 27.909L3.66863 21.5831C1.96966 19.8841 2.01578 17.1157 3.77041 15.4742L15.9516 4.07892ZM22.4998 12C23.8805 12 24.9998 10.8807 24.9998 9.5C24.9998 8.11929 23.8805 7 22.4998 7C21.119 7 19.9998 8.11929 19.9998 9.5C19.9998 10.8807 21.119 12 22.4998 12ZM19.5 19.5H19C17.6193 19.5 16.5 20.6193 16.5 22V28C16.5 29.3807 17.6193 30.5 19 30.5H27C28.3807 30.5 29.5 29.3807 29.5 28V22C29.5 20.6193 28.3807 19.5 27 19.5H26.5V19C26.5 17.067 24.933 15.5 23 15.5C21.067 15.5 19.5 17.067 19.5 19V19.5ZM21.5 19C21.5 18.1716 22.1716 17.5 23 17.5C23.8284 17.5 24.5 18.1716 24.5 19V19.5H21.5V19ZM25 25C25 26.1046 24.1046 27 23 27C21.8954 27 21 26.1046 21 25C21 23.8954 21.8954 23 23 23C24.1046 23 25 23.8954 25 25Z" fill="#212121"/>
</svg>

<svg xmlns="http://www.w3.org/2000/svg" width="32" height="32"><path d="M15.952 4.079A4 4 0 0 1 18.684 3H25.5A3.5 3.5 0 0 1 29 6.5v6.757a4 4 0 0 1-1.172 2.829l-.467.467a5.002 5.002 0 0 0-9.282 1.553A4.002 4.002 0 0 0 15 22v6c0 .214.018.424.05.628a4.252 4.252 0 0 1-5.054-.719L3.67 21.583a4.25 4.25 0 0 1 .101-6.109L15.952 4.08ZM22.5 12a2.5 2.5 0 1 0 0-5 2.5 2.5 0 0 0 0 5Zm-3 7.5H19a2.5 2.5 0 0 0-2.5 2.5v6a2.5 2.5 0 0 0 2.5 2.5h8a2.5 2.5 0 0 0 2.5-2.5v-6a2.5 2.5 0 0 0-2.5-2.5h-.5V19a3.5 3.5 0 1 0-7 0v.5Zm2-.5a1.5 1.5 0 0 1 3 0v.5h-3V19Zm3.5 6a2 2 0 1 1-4 0 2 2 0 0 1 4 0Z"/></svg>
